build/img/icon-phone.svg

<svg width="17" height="24" viewBox="0 0 17 24" fill="none" xmlns="http://www.w3.org/2000/svg">
<path d="M1.45616 6.74199C1.37161 5.54391 1.63734 4.36374 2.34096 3.41452C2.95096 2.554 3.74517 2.08404 4.70245 1.8094C5.50874 1.57018 6.03721 1.86329 6.26974 2.75972C6.60192 4.09991 7.07604 5.44018 7.24817 6.85129C7.30253 7.47252 6.90089 8.35089 6.46604 8.80328C5.37589 9.87655 5.60238 10.6576 6.42982 12.282C6.6865 12.8057 7.09418 13.7111 7.88839 14.9096C8.71583 16.1169 9.1537 16.7649 10.2167 16.2152C11.3974 15.6212 12.2581 16.0032 13.1489 16.9621C13.7529 17.6546 14.4172 18.2495 15.0212 18.942C15.8939 19.9718 15.8547 20.6818 15.1722 21.4091C13.9431 22.7486 11.9138 23.1913 10.4039 22.2943C9.57045 21.8058 8.74 21.1664 8.07866 20.4206C5.16453 17.1002 3.06272 13.2388 1.79741 8.88089C1.59508 8.14421 1.50146 7.39872 1.45616 6.74199Z" stroke="#0AD9C6" stroke-width="2" stroke-miterlimit="10"/>
</svg>

<svg width="17" height="24" fill="none" xmlns="http://www.w3.org/2000/svg"><path d="M1.456 6.742c-.084-1.198.181-2.378.885-3.327.61-.861 1.404-1.331 2.361-1.606.807-.239 1.335.054 1.568.95.332 1.34.806 2.681.978 4.092.055.622-.347 1.5-.782 1.952-1.09 1.074-.864 1.855-.036 3.479.256.524.664 1.43 1.458 2.628.828 1.207 1.266 1.855 2.329 1.305 1.18-.594 2.041-.212 2.932.747.604.693 1.268 1.288 1.872 1.98.873 1.03.834 1.74.151 2.467-1.229 1.34-3.258 1.782-4.768.885-.834-.488-1.664-1.128-2.325-1.873-2.914-3.32-5.016-7.182-6.282-11.54a10.989 10.989 0 01-.34-2.139z" stroke="#0AD9C6" stroke-width="2" stroke-miterlimit="10"/></svg>
